paymentMethods/klarna.svg

<svg width="128" height="64" viewBox="0 0 128 64" fill="none" xmlns="http://www.w3.org/2000/svg">
<rect width="128" height="64" rx="6" fill="#FFB3C7"/>
<path d="M101.673 37.3303C101.218 37.3255 100.773 37.4556 100.392 37.7042C100.011 37.9528 99.713 38.3086 99.5347 38.7268C99.3563 39.1449 99.3059 39.6065 99.3899 40.0533C99.4739 40.5 99.6885 40.9119 100.006 41.2367C100.325 41.5615 100.732 41.7847 101.177 41.8781C101.622 41.9715 102.084 41.9309 102.506 41.7614C102.928 41.5918 103.29 41.3011 103.546 40.9258C103.803 40.5505 103.942 40.1076 103.947 39.653C103.949 39.3531 103.892 39.0557 103.779 38.7779C103.666 38.5 103.499 38.2472 103.289 38.0337C103.078 37.8203 102.827 37.6505 102.551 37.5339C102.274 37.4174 101.978 37.3564 101.678 37.3545L101.673 37.3303ZM94.1907 35.5555C94.2199 34.9055 94.0556 34.2616 93.7185 33.705C93.3815 33.1485 92.887 32.7045 92.2975 32.4292C91.708 32.1539 91.0501 32.0597 90.407 32.1585C89.764 32.2573 89.1647 32.5447 88.685 32.9843C88.2054 33.4238 87.8669 33.9958 87.7125 34.6279C87.5581 35.2599 87.5947 35.9235 87.8176 36.5347C88.0406 37.1459 88.4399 37.6772 88.9649 38.0614C89.49 38.4456 90.1172 38.6654 90.7672 38.6929H90.9127C91.763 38.7098 92.5853 38.3892 93.1996 37.8012C93.814 37.2131 94.1704 36.4057 94.1907 35.5555V35.5555ZM94.1907 29.4504H97.8179V41.6654H94.1907V40.8847C93.1351 41.6112 91.8838 42.0001 90.6024 42C88.8932 42 87.254 41.321 86.0454 40.1124C84.8368 38.9039 84.1579 37.2647 84.1579 35.5555C84.1579 33.8463 84.8368 32.2071 86.0454 30.9985C87.254 29.79 88.8932 29.111 90.6024 29.111C91.8846 29.1108 93.1364 29.5015 94.1907 30.2311V29.4504ZM65.1929 31.0409V29.4504H61.4833V41.6654H65.2026V35.9628C65.2026 34.0232 67.2683 33.0048 68.7037 33.0048H68.7424V29.4504C68.0695 29.4332 67.4013 29.5671 66.7869 29.8424C66.1726 30.1176 65.6279 30.5272 65.1929 31.0409ZM55.9504 35.5555C55.9795 34.9058 55.8153 34.262 55.4784 33.7056C55.1416 33.1492 54.6473 32.7053 54.0581 32.4299C53.4689 32.1545 52.8113 32.06 52.1684 32.1585C51.5255 32.2569 50.9262 32.5438 50.4464 32.9829C49.9666 33.422 49.6278 33.9935 49.4729 34.6252C49.318 35.2569 49.3539 35.9203 49.5761 36.5315C49.7983 37.1428 50.1968 37.6744 50.7212 38.0591C51.2456 38.4439 51.8723 38.6644 52.5221 38.6929H52.6676C53.0898 38.7032 53.5099 38.6302 53.9039 38.4781C54.2979 38.326 54.6581 38.0977 54.9639 37.8064C55.2696 37.515 55.515 37.1663 55.686 36.7801C55.8569 36.3938 55.9501 35.9777 55.9601 35.5555H55.9504ZM55.9504 29.4504H59.5727V41.6654H55.9504V40.8847C54.8933 41.6119 53.6403 42.0008 52.3572 42C50.648 42 49.0088 41.321 47.8003 40.1124C46.5917 38.9039 45.9127 37.2647 45.9127 35.5555C45.9127 33.8463 46.5917 32.2071 47.8003 30.9985C49.0088 29.79 50.648 29.111 52.3572 29.111C53.6407 29.1119 54.8937 29.5025 55.9504 30.2311V29.4504ZM77.7715 29.1207C77.0582 29.0754 76.3446 29.2061 75.6936 29.5012C75.0425 29.7963 74.4739 30.2467 74.0377 30.813V29.4504H70.4299V41.6654H74.0813V35.2451C74.0813 33.3879 75.313 32.4811 76.8017 32.4811C78.3922 32.4811 79.3087 33.451 79.3087 35.2209V41.6654H82.931V33.9068C82.931 31.0652 80.6907 29.1304 77.7715 29.1304V29.1207ZM40.7144 41.6654H44.5065V24.0242H40.7144V41.6654ZM24.0528 41.6654H28.0679V24.0242H24.0528V41.6654ZM38.1153 24C38.1282 25.858 37.7742 27.7002 37.0735 29.421C36.3729 31.1419 35.3394 32.7075 34.0323 34.028L39.5603 41.6654H34.5851L28.5479 33.3685L30.1094 32.1902C31.3749 31.2387 32.4012 30.0052 33.1066 28.5876C33.812 27.1701 34.1771 25.6076 34.1729 24.0242L38.1153 24Z" fill="#0A0B09"/>
</svg>

<svg xmlns="http://www.w3.org/2000/svg" width="128" height="64" fill="none"><rect width="128" height="64" fill="#FFB3C7" rx="6"/><path fill="#0A0B09" d="M101.673 37.33a2.298 2.298 0 1 0 2.274 2.323 2.282 2.282 0 0 0-2.269-2.298l-.005-.025Zm-7.482-1.774a3.287 3.287 0 1 0-3.424 3.137h.146a3.215 3.215 0 0 0 3.278-3.137Zm0-6.106h3.627v12.215H94.19v-.78A6.328 6.328 0 0 1 90.602 42a6.445 6.445 0 0 1 0-12.889c1.283 0 2.534.39 3.589 1.12v-.78Zm-28.998 1.59v-1.59h-3.71v12.215h3.72v-5.702c0-1.94 2.065-2.958 3.5-2.958h.04V29.45a4.5 4.5 0 0 0-3.55 1.59Zm-9.243 4.516a3.288 3.288 0 1 0-3.428 3.137h.146a3.215 3.215 0 0 0 3.292-3.137h-.01Zm0-6.106h3.623v12.215H55.95v-.78A6.333 6.333 0 0 1 52.357 42a6.444 6.444 0 1 1 0-12.889c1.284 0 2.537.392 3.593 1.12v-.78Zm21.822-.33a4.363 4.363 0 0 0-3.734 1.693V29.45H70.43v12.215h3.651v-6.42c0-1.857 1.232-2.764 2.72-2.764 1.591 0 2.508.97 2.508 2.74v6.444h3.622v-7.758c0-2.842-2.24-4.777-5.16-4.777v-.01ZM40.714 41.666h3.793v-17.64h-3.793v17.64Zm-16.661 0h4.015v-17.64h-4.015v17.64ZM38.115 24a14.114 14.114 0 0 1-4.083 10.028l5.528 7.637h-4.975l-6.037-8.297 1.561-1.178a10.183 10.183 0 0 0 4.064-8.166L38.115 24Z"/></svg>
